resources/haticons/SVG/kitchen.svg

<!-- Generated by IcoMoon.io -->
<svg version="1.1" xmlns="http://www.w3.org/2000/svg" width="24" height="24" viewBox="0 0 24 24">
<title>kitchen</title>
<path d="M8.016 12h1.969v5.016h-1.969v-5.016zM8.016 5.016h1.969v3h-1.969v-3zM18 9v-5.016h-12v5.016h12zM18 20.016v-9.047h-12v9.047h12zM18 2.016q0.844 0 1.43 0.563t0.586 1.406v16.031q0 0.797-0.609 1.383t-1.406 0.586h-12q-0.797 0-1.406-0.586t-0.609-1.383v-16.031q0-0.844 0.586-1.406t1.43-0.563h12z"></path>
</svg>

<svg xmlns="http://www.w3.org/2000/svg" width="24" height="24"><path d="M8.016 12h1.969v5.016H8.016V12zm0-6.984h1.969v3H8.016v-3zM18 9V3.984H6V9h12zm0 11.016v-9.047H6v9.047h12zm0-18q.844 0 1.43.563t.586 1.406v16.031q0 .797-.609 1.383t-1.406.586h-12q-.797 0-1.406-.586t-.609-1.383V3.985q0-.844.586-1.406t1.43-.563h12z"/></svg>
